X: 40804
T: Tracks 'n' Ties
R: reel
M: 4/4
K: Gmajor
G2 AB dG eG|g2 fe dB GE|A2 Bd e2 Gg|d2 Bg Ge d2|
G2 AB dG eG|g2 fe dB GE|A2 BG dG e2|ge d2 BG A2|
e2 gd G2 Bd|gB ed B2 E2|A2 Bd e2 Gg|e2 Bg Ge d2|
e2 gd G2 Bd|gB ed B2 E2|A2 BA GE De|DE GD BA G2|

